resources/haticons/SVG/no_meals.svg

<!-- Generated by IcoMoon.io -->
<svg version="1.1" xmlns="http://www.w3.org/2000/svg" width="24" height="24" viewBox="0 0 24 24">
<title>no_meals</title>
<path d="M15.984 14.016v-8.016q0-0.656 0.398-1.359t1.078-1.313 1.594-0.961 1.945-0.352v16.172l-2.016-2.016v-2.156h-3zM20.484 23.297l-10.453-10.453q-0.281 0.094-0.516 0.117t-0.516 0.023v9h-2.016v-9q-1.078 0-1.992-0.539t-1.453-1.43-0.539-2.016v-3.188l-2.297-2.297 1.406-1.406 19.781 19.781zM6.188 9l-1.172-1.172v1.172h1.172zM9 2.016h-2.016v2.156l2.016 2.016v-4.172zM12.984 9v-6.984h-1.969v6.141l1.828 1.875q0.094-0.281 0.117-0.516t0.023-0.516z"></path>
</svg>

<svg xmlns="http://www.w3.org/2000/svg" width="24" height="24"><path d="M15.984 14.016V6q0-.656.398-1.359t1.078-1.313 1.594-.961 1.945-.352v16.172l-2.016-2.016v-2.156h-3zm4.5 9.281L10.031 12.844q-.281.094-.516.117t-.516.023v9H6.983v-9q-1.078 0-1.992-.539t-1.453-1.43-.539-2.016V5.811L.702 3.514l1.406-1.406 19.781 19.781zM6.188 9L5.016 7.828V9h1.172zM9 2.016H6.984v2.156L9 6.188V2.016zM12.984 9V2.016h-1.969v6.141l1.828 1.875q.094-.281.117-.516T12.983 9z"/></svg>
